assets/dist/img/icons/down-arrow.svg

<svg xmlns="http://www.w3.org/2000/svg" width="100" height="100" viewBox="0 0 100 100"><path fill="#FFF" d="M100 49.999c0-27.569-22.434-49.999-50-49.999-27.572 0-50 22.43-50 49.999 0 27.569 22.428 50.001 50 50.001 27.566 0 50-22.432 50-50.001zm-94.231 0c0-24.389 19.842-44.229 44.231-44.229s44.231 19.84 44.231 44.229c0 24.39-19.843 44.231-44.231 44.231s-44.231-19.841-44.231-44.231zM75.493 44.782c1.127-1.127 1.127-2.952 0-4.079-1.127-1.126-2.952-1.126-4.079 0l-21.414 21.418-21.42-21.418c-1.126-1.126-2.952-1.126-4.079 0-.563.563-.845 1.302-.845 2.04s.282 1.476.845 2.04l23.459 23.455c1.127 1.127 2.953 1.127 4.079 0l23.454-23.456z"/></svg>

<svg xmlns="http://www.w3.org/2000/svg" width="100" height="100" viewBox="0 0 100 100"><path fill="#FFF" d="M100 50c0-27.57-22.434-50-50-50C22.428 0 0 22.43 0 50c0 27.568 22.428 50 50 50 27.566 0 50-22.432 50-50zM5.77 50C5.77 25.61 25.61 5.77 50 5.77S94.23 25.61 94.23 50c0 24.39-19.842 44.23-44.23 44.23S5.77 74.39 5.77 50z"/><path fill="#FFF" d="M75.493 44.782c1.127-1.127 1.127-2.952 0-4.08-1.127-1.125-2.952-1.125-4.08 0L50 62.123 28.58 40.7c-1.126-1.125-2.952-1.125-4.08 0-.562.564-.844 1.303-.844 2.04 0 .74.282 1.477.845 2.04L47.96 68.24c1.127 1.127 2.953 1.127 4.08 0l23.453-23.456z"/></svg>
